svg/feather.svg

<svg xmlns="http://www.w3.org/2000/svg" viewBox="0 0 24 24"><path d="M22 2s-7.64-.37-13.66 7.88C3.72 16.21 2 22 2 22l1.94-1c1.44-2.5 2.19-3.53 3.6-5 2.53.74 5.17.65 7.46-2-2-.56-3.6-.43-5.96-.19C11.69 12 13.5 11.6 16 12l1-2c-1.8-.34-3-.37-4.78.04C14.19 8.65 15.56 7.87 18 8l1.21-1.93c-1.56-.11-2.5.06-4.29.5 1.61-1.46 3.08-2.12 5.22-2.25 0 0 1.05-1.89 1.86-2.32"/></svg>

<?xml version="1.0" encoding="UTF-8"?><!DOCTYPE svg PUBLIC "-//W3C//DTD SVG 1.1//EN" "http://www.w3.org/Graphics/SVG/1.1/DTD/svg11.dtd"><svg xmlns="http://www.w3.org/2000/svg" xmlns:xlink="http://www.w3.org/1999/xlink" version="1.1" id="mdi-feather" width="24" height="24" viewBox="0 0 24 24"><path d="M22,2C22,2 14.36,1.63 8.34,9.88C3.72,16.21 2,22 2,22L3.94,21C5.38,18.5 6.13,17.47 7.54,16C10.07,16.74 12.71,16.65 15,14C13,13.44 11.4,13.57 9.04,13.81C11.69,12 13.5,11.6 16,12L17,10C15.2,9.66 14,9.63 12.22,10.04C14.19,8.65 15.56,7.87 18,8L19.21,6.07C17.65,5.96 16.71,6.13 14.92,6.57C16.53,5.11 18,4.45 20.14,4.32C20.14,4.32 21.19,2.43 22,2Z" /></svg>
